48x48/apps/gpodder.svg

<svg viewBox="0 0 48 48"><defs><linearGradient id="linearGradient3764" x1="1" x2="47" gradientUnits="userSpaceOnUse" gradientTransform="matrix(0,-1,1,0,-1.5e-6,47.999998)"><stop stop-color="#e4e4e4" stop-opacity="1"/><stop offset="1" stop-color="#eee" stop-opacity="1"/></linearGradient><clipPath id="clipPath-134193607"><g transform="translate(0,-1004.3622)"><path d="m -24 13 c 0 1.105 -0.672 2 -1.5 2 -0.828 0 -1.5 -0.895 -1.5 -2 0 -1.105 0.672 -2 1.5 -2 0.828 0 1.5 0.895 1.5 2 z" transform="matrix(15.333333,0,0,11.5,414.99999,878.8622)" fill="#1890d0"/></g></clipPath><clipPath id="clipPath-142873438"><g transform="translate(0,-1004.3622)"><path d="m -24 13 c 0 1.105 -0.672 2 -1.5 2 -0.828 0 -1.5 -0.895 -1.5 -2 0 -1.105 0.672 -2 1.5 -2 0.828 0 1.5 0.895 1.5 2 z" transform="matrix(15.333333,0,0,11.5,414.99999,878.8622)" fill="#1890d0"/></g></clipPath></defs><g><path d="m 36.31 5 c 5.859 4.062 9.688 10.831 9.688 18.5 c 0 12.426 -10.07 22.5 -22.5 22.5 c -7.669 0 -14.438 -3.828 -18.5 -9.688 c 1.037 1.822 2.306 3.499 3.781 4.969 c 4.085 3.712 9.514 5.969 15.469 5.969 c 12.703 0 23 -10.298 23 -23 c 0 -5.954 -2.256 -11.384 -5.969 -15.469 c -1.469 -1.475 -3.147 -2.744 -4.969 -3.781 z m 4.969 3.781 c 3.854 4.113 6.219 9.637 6.219 15.719 c 0 12.703 -10.297 23 -23 23 c -6.081 0 -11.606 -2.364 -15.719 -6.219 c 4.16 4.144 9.883 6.719 16.219 6.719 c 12.703 0 23 -10.298 23 -23 c 0 -6.335 -2.575 -12.06 -6.719 -16.219 z" opacity="0.05"/><path d="m 41.28 8.781 c 3.712 4.085 5.969 9.514 5.969 15.469 c 0 12.703 -10.297 23 -23 23 c -5.954 0 -11.384 -2.256 -15.469 -5.969 c 4.113 3.854 9.637 6.219 15.719 6.219 c 12.703 0 23 -10.298 23 -23 c 0 -6.081 -2.364 -11.606 -6.219 -15.719 z" opacity="0.1"/><path d="m 31.25 2.375 c 8.615 3.154 14.75 11.417 14.75 21.13 c 0 12.426 -10.07 22.5 -22.5 22.5 c -9.708 0 -17.971 -6.135 -21.12 -14.75 a 23 23 0 0 0 44.875 -7 a 23 23 0 0 0 -16 -21.875 z" opacity="0.2"/></g><g><path d="m 24 1 c 12.703 0 23 10.297 23 23 c 0 12.703 -10.297 23 -23 23 -12.703 0 -23 -10.297 -23 -23 0 -12.703 10.297 -23 23 -23 z" fill="url(#linearGradient3764)" fill-opacity="1"/></g><g/><g><g clip-path="url(#clipPath-134193607)"><g transform="translate(1,1)"><g opacity="0.1"><!-- color: #eeeeee --><g><path d="m 20.605 26.801 c -0.844 -1.684 -0.723 -11.965 2.102 -12.07 c 2.824 -0.105 3.578 8.836 3.855 11.301 c 0.27 2.469 -0.637 4.68 5.445 3.324 c 2.699 -0.602 4.227 -2.043 4.04 1.551 c -0.188 3.598 -6.918 3.703 -10.1 3.953 c -8.539 0.469 -15.04 -0.246 -14.949 -2.281 c 0.082 -2.039 0.191 -2.895 1.77 -2.617 c 10.492 1.852 8.762 -1.32 7.84 -3.164 m 0.004 0" fill="#000" stroke="none" fill-rule="nonzero" fill-opacity="1"/><path d="m 28.703 19.17 l 3.188 -0.348 l 0.566 4.949 l -3.188 0.34 m -0.566 -4.941" fill="#000" stroke="none" fill-rule="nonzero" fill-opacity="1"/><path d="m 14.16 20.75 l 3.309 -0.355 l 0.566 4.949 l -3.305 0.355 m -0.57 -4.949" fill="#000" stroke="none" fill-rule="nonzero" fill-opacity="1"/><path d="m 6.401 6.386 c -0.05 0.839 -0.46 1.496 -0.922 1.475 c -0.462 -0.022 -0.805 -0.713 -0.771 -1.553 c 0.051 -0.84 0.461 -1.496 0.923 -1.475 c 0.462 0.021 0.805 0.712 0.767 1.553 m 0 0" transform="matrix(3.543307,0,0,3.543307,0,0)" stroke-opacity="1" fill="#000" fill-rule="nonzero" stroke="#2d2d2d" stroke-linejoin="miter" fill-opacity="1" stroke-linecap="butt" stroke-width="0.282" stroke-miterlimit="4"/><path d="m 21.332 23.863 c -0.035 0.563 -0.348 1.078 -0.816 1.352 c -0.469 0.273 -1.02 0.258 -1.438 -0.039 c -0.418 -0.297 -0.641 -0.828 -0.574 -1.387 c 0.094 -0.832 0.781 -1.477 1.547 -1.457 c 0.766 0.02 1.332 0.699 1.281 1.531 m 0 0" fill="#000" stroke="none" fill-rule="nonzero" fill-opacity="1"/><path d="m 8.487 6.177 c 0.079 0.836 -0.225 1.54 -0.684 1.584 c -0.46 0.044 -0.905 -0.589 -1 -1.422 c -0.065 -0.555 0.04 -1.087 0.273 -1.393 c 0.234 -0.304 0.56 -0.335 0.851 -0.082 c 0.293 0.255 0.507 0.757 0.559 1.313 m 0 0" transform="matrix(3.543307,0,0,3.543307,0,0)" stroke-opacity="1" fill="#000" fill-rule="nonzero" stroke="#2d2d2d" stroke-linejoin="miter" fill-opacity="1" stroke-linecap="butt" stroke-width="0.282" stroke-miterlimit="4"/><path d="m 28.559 23.797 c -0.191 0.895 -0.922 1.57 -1.629 1.512 c -0.707 -0.063 -1.125 -0.836 -0.934 -1.73 c 0.195 -0.895 0.922 -1.574 1.633 -1.512 c 0.707 0.059 1.121 0.836 0.93 1.73 m 0 0" fill="#000" stroke="none" fill-rule="nonzero" fill-opacity="1"/><path d="m 22.309 13.05 c -4.32 0.461 -7.453 3.961 -7.01 7.82 c 0.023 0.266 0.09 0.539 0.145 0.793 l 1.086 -0.129 c -0.063 -0.25 -0.121 -0.508 -0.145 -0.773 c -0.379 -3.32 2.313 -6.336 6.04 -6.734 c 3.719 -0.395 7.05 1.973 7.43 5.293 c 0.031 0.266 0.027 0.531 0.02 0.797 l 1.086 -0.113 c 0.004 -0.262 0.012 -0.527 -0.016 -0.793 c -0.445 -3.859 -4.316 -6.621 -8.637 -6.16 m 0.004 0" fill="#000" stroke="none" fill-rule="nonzero" fill-opacity="1"/><path d="m 30.906 22.23 c -0.113 1.078 -0.063 1.863 0.152 2.453 c 0.211 0.586 0.598 0.98 1.051 1.219 c 0.898 0.461 2 0.422 2.996 0.734 c 0.531 0.41 1.055 0.797 1.398 1.293 l 0.496 -0.336 c -0.434 -0.617 -1.027 -1.039 -1.566 -1.457 l -0.039 -0.035 l -0.059 -0.016 c -1.137 -0.375 -2.254 -0.367 -2.941 -0.719 c -0.34 -0.18 -0.594 -0.422 -0.762 -0.887 c -0.168 -0.465 -0.227 -1.148 -0.113 -2.176 m -0.613 -0.074" fill="#000" stroke="none" fill-rule="nonzero" fill-opacity="1"/></g></g></g></g></g><g><g clip-path="url(#clipPath-142873438)"><!-- color: #eeeeee --><g><path d="m 20.605 26.801 c -0.844 -1.684 -0.723 -11.965 2.102 -12.07 c 2.824 -0.105 3.578 8.836 3.855 11.301 c 0.27 2.469 -0.637 4.68 5.445 3.324 c 2.699 -0.602 4.227 -2.043 4.04 1.551 c -0.188 3.598 -6.918 3.703 -10.1 3.953 c -8.539 0.469 -15.04 -0.246 -14.949 -2.281 c 0.082 -2.039 0.191 -2.895 1.77 -2.617 c 10.492 1.852 8.762 -1.32 7.84 -3.164 m 0.004 0" fill="#7f5485" stroke="none" fill-rule="nonzero" fill-opacity="1"/><path d="m 28.703 19.17 l 3.188 -0.348 l 0.566 4.949 l -3.188 0.34 m -0.566 -4.941" fill="#2d2d2d" stroke="none" fill-rule="nonzero" fill-opacity="1"/><path d="m 14.16 20.75 l 3.309 -0.355 l 0.566 4.949 l -3.305 0.355 m -0.57 -4.949" fill="#2d2d2d" stroke="none" fill-rule="nonzero" fill-opacity="1"/><path d="m 6.401 6.386 c -0.05 0.839 -0.46 1.496 -0.922 1.475 c -0.462 -0.022 -0.805 -0.713 -0.771 -1.553 c 0.051 -0.84 0.461 -1.496 0.923 -1.475 c 0.462 0.021 0.805 0.712 0.767 1.553 m 0 0" transform="matrix(3.543307,0,0,3.543307,0,0)" stroke-opacity="1" fill="#ececec" fill-rule="nonzero" stroke="#2d2d2d" stroke-linejoin="miter" fill-opacity="1" stroke-linecap="butt" stroke-width="0.282" stroke-miterlimit="4"/><path d="m 21.332 23.863 c -0.035 0.563 -0.348 1.078 -0.816 1.352 c -0.469 0.273 -1.02 0.258 -1.438 -0.039 c -0.418 -0.297 -0.641 -0.828 -0.574 -1.387 c 0.094 -0.832 0.781 -1.477 1.547 -1.457 c 0.766 0.02 1.332 0.699 1.281 1.531 m 0 0" fill="#2d2d2d" stroke="none" fill-rule="nonzero" fill-opacity="1"/><path d="m 8.487 6.177 c 0.079 0.836 -0.225 1.54 -0.684 1.584 c -0.46 0.044 -0.905 -0.589 -1 -1.422 c -0.065 -0.555 0.04 -1.087 0.273 -1.393 c 0.234 -0.304 0.56 -0.335 0.851 -0.082 c 0.293 0.255 0.507 0.757 0.559 1.313 m 0 0" transform="matrix(3.543307,0,0,3.543307,0,0)" stroke-opacity="1" fill="#ececec" fill-rule="nonzero" stroke="#2d2d2d" stroke-linejoin="miter" fill-opacity="1" stroke-linecap="butt" stroke-width="0.282" stroke-miterlimit="4"/><path d="m 28.559 23.797 c -0.191 0.895 -0.922 1.57 -1.629 1.512 c -0.707 -0.063 -1.125 -0.836 -0.934 -1.73 c 0.195 -0.895 0.922 -1.574 1.633 -1.512 c 0.707 0.059 1.121 0.836 0.93 1.73 m 0 0" fill="#2d2d2d" stroke="none" fill-rule="nonzero" fill-opacity="1"/><path d="m 22.309 13.05 c -4.32 0.461 -7.453 3.961 -7.01 7.82 c 0.023 0.266 0.09 0.539 0.145 0.793 l 1.086 -0.129 c -0.063 -0.25 -0.121 -0.508 -0.145 -0.773 c -0.379 -3.32 2.313 -6.336 6.04 -6.734 c 3.719 -0.395 7.05 1.973 7.43 5.293 c 0.031 0.266 0.027 0.531 0.02 0.797 l 1.086 -0.113 c 0.004 -0.262 0.012 -0.527 -0.016 -0.793 c -0.445 -3.859 -4.316 -6.621 -8.637 -6.16 m 0.004 0" fill="#2d2d2d" stroke="none" fill-rule="nonzero" fill-opacity="1"/><path d="m 30.906 22.23 c -0.113 1.078 -0.063 1.863 0.152 2.453 c 0.211 0.586 0.598 0.98 1.051 1.219 c 0.898 0.461 2 0.422 2.996 0.734 c 0.531 0.41 1.055 0.797 1.398 1.293 l 0.496 -0.336 c -0.434 -0.617 -1.027 -1.039 -1.566 -1.457 l -0.039 -0.035 l -0.059 -0.016 c -1.137 -0.375 -2.254 -0.367 -2.941 -0.719 c -0.34 -0.18 -0.594 -0.422 -0.762 -0.887 c -0.168 -0.465 -0.227 -1.148 -0.113 -2.176 m -0.613 -0.074" fill="#2d2d2d" stroke="none" fill-rule="nonzero" fill-opacity="1"/></g></g></g><g><path d="m 40.03 7.531 c 3.712 4.084 5.969 9.514 5.969 15.469 0 12.703 -10.297 23 -23 23 c -5.954 0 -11.384 -2.256 -15.469 -5.969 4.178 4.291 10.01 6.969 16.469 6.969 c 12.703 0 23 -10.298 23 -23 0 -6.462 -2.677 -12.291 -6.969 -16.469 z" opacity="0.1"/></g></svg>

<?xml version="1.0" encoding="UTF-8" standalone="no"?>
<svg
   xmlns:dc="http://purl.org/dc/elements/1.1/"
   xmlns:cc="http://creativecommons.org/ns#"
   xmlns:rdf="http://www.w3.org/1999/02/22-rdf-syntax-ns#"
   xmlns:svg="http://www.w3.org/2000/svg"
   xmlns="http://www.w3.org/2000/svg"
   xmlns:sodipodi="http://sodipodi.sourceforge.net/DTD/sodipodi-0.dtd"
   xmlns:inkscape="http://www.inkscape.org/namespaces/inkscape"
   viewBox="0 0 48 48"
   id="svg2"
   version="1.1"
   inkscape:version="0.48.4 r9939"
   width="100%"
   height="100%"
   sodipodi:docname="gpodder.svg">
  <metadata
     id="metadata93">
    <rdf:RDF>
      <cc:Work
         rdf:about="">
        <dc:format>image/svg+xml</dc:format>
        <dc:type
           rdf:resource="http://purl.org/dc/dcmitype/StillImage" />
      </cc:Work>
    </rdf:RDF>
  </metadata>
  <sodipodi:namedview
     pagecolor="#ffffff"
     bordercolor="#666666"
     borderopacity="1"
     objecttolerance="10"
     gridtolerance="10"
     guidetolerance="10"
     inkscape:pageopacity="0"
     inkscape:pageshadow="2"
     inkscape:window-width="1375"
     inkscape:window-height="876"
     id="namedview91"
     showgrid="false"
     inkscape:zoom="4.9166667"
     inkscape:cx="-0.20338983"
     inkscape:cy="24"
     inkscape:window-x="65"
     inkscape:window-y="24"
     inkscape:window-maximized="1"
     inkscape:current-layer="svg2" />
  <defs
     id="defs4">
    <linearGradient
       id="linearGradient3764"
       x1="1"
       x2="47"
       gradientUnits="userSpaceOnUse"
       gradientTransform="matrix(0,-1,1,0,-1.5e-6,47.999998)">
      <stop
         stop-color="#e4e4e4"
         stop-opacity="1"
         id="stop7" />
      <stop
         offset="1"
         stop-color="#eee"
         stop-opacity="1"
         id="stop9" />
    </linearGradient>
    <clipPath
       id="clipPath-134193607">
      <g
         transform="translate(0,-1004.3622)"
         id="g12">
        <path
           d="m -24 13 c 0 1.105 -0.672 2 -1.5 2 -0.828 0 -1.5 -0.895 -1.5 -2 0 -1.105 0.672 -2 1.5 -2 0.828 0 1.5 0.895 1.5 2 z"
           transform="matrix(15.333333,0,0,11.5,414.99999,878.8622)"
           fill="#1890d0"
           id="path14" />
      </g>
    </clipPath>
    <clipPath
       id="clipPath-142873438">
      <g
         transform="translate(0,-1004.3622)"
         id="g17">
        <path
           d="m -24 13 c 0 1.105 -0.672 2 -1.5 2 -0.828 0 -1.5 -0.895 -1.5 -2 0 -1.105 0.672 -2 1.5 -2 0.828 0 1.5 0.895 1.5 2 z"
           transform="matrix(15.333333,0,0,11.5,414.99999,878.8622)"
           fill="#1890d0"
           id="path19" />
      </g>
    </clipPath>
    <linearGradient
       id="linearGradient3764-4"
       x1="1"
       x2="47"
       gradientUnits="userSpaceOnUse"
       gradientTransform="matrix(0,-1,1,0,-1.5e-6,47.999998)">
      <stop
         stop-color="#b5945b"
         stop-opacity="1"
         id="stop7-1" />
      <stop
         offset="1"
         stop-color="#bb9e69"
         stop-opacity="1"
         id="stop9-8" />
    </linearGradient>
    <clipPath
       id="clipPath-899834956">
      <g
         transform="translate(0,-1004.3622)"
         id="g12-9">
        <path
           d="m -24 13 c 0 1.105 -0.672 2 -1.5 2 -0.828 0 -1.5 -0.895 -1.5 -2 0 -1.105 0.672 -2 1.5 -2 0.828 0 1.5 0.895 1.5 2 z"
           transform="matrix(15.333333,0,0,11.5,414.99999,878.8622)"
           fill="#1890d0"
           id="path14-1" />
      </g>
    </clipPath>
    <clipPath
       id="clipPath-909443126">
      <g
         transform="translate(0,-1004.3622)"
         id="g17-6">
        <path
           d="m -24 13 c 0 1.105 -0.672 2 -1.5 2 -0.828 0 -1.5 -0.895 -1.5 -2 0 -1.105 0.672 -2 1.5 -2 0.828 0 1.5 0.895 1.5 2 z"
           transform="matrix(15.333333,0,0,11.5,414.99999,878.8622)"
           fill="#1890d0"
           id="path19-30" />
      </g>
    </clipPath>
    <clipPath
       id="clipPath-909443126-7">
      <g
         transform="translate(0,-1004.3622)"
         id="g17-2">
        <path
           style="fill:#1890d0"
           inkscape:connector-curvature="0"
           d="m -24,13 c 0,1.105 -0.672,2 -1.5,2 -0.828,0 -1.5,-0.895 -1.5,-2 0,-1.105 0.672,-2 1.5,-2 0.828,0 1.5,0.895 1.5,2 z"
           transform="matrix(15.333333,0,0,11.5,414.99999,878.8622)"
           id="path19-3" />
      </g>
    </clipPath>
    <linearGradient
       id="linearGradient3759">
      <stop
         id="stop3761"
         offset="0"
         style="stop-color:#a75e15;stop-opacity:1;" />
      <stop
         id="stop3763"
         offset="1"
         style="stop-color:#ffffff;stop-opacity:0;" />
    </linearGradient>
    <linearGradient
       id="linearGradient3777">
      <stop
         id="stop3779"
         offset="0"
         style="stop-color:#e0dd00;stop-opacity:1;" />
      <stop
         id="stop3781"
         offset="1"
         style="stop-color:#000000;stop-opacity:0;" />
    </linearGradient>
    <clipPath
       id="clipPath-142873438-0">
      <g
         transform="translate(0,-1004.3622)"
         id="g17-3">
        <path
           style="fill:#1890d0"
           inkscape:connector-curvature="0"
           d="m -24,13 c 0,1.105 -0.672,2 -1.5,2 -0.828,0 -1.5,-0.895 -1.5,-2 0,-1.105 0.672,-2 1.5,-2 0.828,0 1.5,0.895 1.5,2 z"
           transform="matrix(15.333333,0,0,11.5,414.99999,878.8622)"
           id="path19-37" />
      </g>
    </clipPath>
  </defs>
  <g
     id="g33" />
  <g
     id="g3117">
    <g
       inkscape:label="shadows"
       id="layer2">
      <rect
         ry="13.03658"
         rx="13.03658"
         y="1"
         x="1"
         height="46"
         width="46"
         id="rect3007"
         style="opacity:0.1;fill:#000000;fill-opacity:1;fill-rule:nonzero;stroke:none" />
      <rect
         style="opacity:0.1;fill:#000000;fill-opacity:1;fill-rule:nonzero;stroke:none"
         id="rect3011"
         width="47"
         height="47"
         x="0.5"
         y="0.5"
         rx="13.319984"
         ry="13.319984" />
      <rect
         style="opacity:0.1;fill:#000000;fill-opacity:1;fill-rule:nonzero;stroke:none"
         id="rect3013"
         width="46.5"
         height="46.5"
         x="0.75"
         y="0.75"
         rx="13.178282"
         ry="13.178282" />
    </g>
    <g
       style="display:inline"
       inkscape:label="background-color"
       id="layer1">
      <rect
         transform="matrix(0,-1,1,0,0,0)"
         ry="12.753176"
         rx="12.753176"
         y="1.5"
         x="-46.5"
         height="45"
         width="45"
         id="rect2988"
         style="fill:#e6e6e6;fill-opacity:1;fill-rule:nonzero;stroke:none" />
    </g>
  </g>
  <g
     transform="translate(0.00197183,4.8314413e-4)"
     id="g63-3">
    <g
       clip-path="url(#clipPath-142873438-0)"
       id="g65-5">
      <!-- color: #eeeeee -->
      <g
         id="g67-3">
        <path
           style="fill:#7f5485;fill-opacity:1;fill-rule:nonzero;stroke:none"
           inkscape:connector-curvature="0"
           d="m 20.605,26.801 c -0.844,-1.684 -0.723,-11.965 2.102,-12.07 2.824,-0.105 3.578,8.836 3.855,11.301 0.27,2.469 -0.637,4.68 5.445,3.324 2.699,-0.602 4.227,-2.043 4.04,1.551 -0.188,3.598 -6.918,3.703 -10.1,3.953 -8.539,0.469 -15.04,-0.246 -14.949,-2.281 0.082,-2.039 0.191,-2.895 1.77,-2.617 10.492,1.852 8.762,-1.32 7.84,-3.164 m 0.004,0"
           id="path69-1" />
        <path
           style="fill:#2d2d2d;fill-opacity:1;fill-rule:nonzero;stroke:none"
           inkscape:connector-curvature="0"
           d="m 28.703,19.17 3.188,-0.348 0.566,4.949 -3.188,0.34 M 28.703,19.17"
           id="path71-3" />
        <path
           style="fill:#2d2d2d;fill-opacity:1;fill-rule:nonzero;stroke:none"
           inkscape:connector-curvature="0"
           d="m 14.16,20.75 3.309,-0.355 0.566,4.949 -3.305,0.355 M 14.16,20.75"
           id="path73-1" />
        <path
           style="fill:#ececec;fill-opacity:1;fill-rule:nonzero;stroke:#2d2d2d;stroke-width:0.28200001;stroke-linecap:butt;stroke-linejoin:miter;stroke-miterlimit:4;stroke-opacity:1"
           inkscape:connector-curvature="0"
           d="M 6.401,6.386 C 6.351,7.225 5.941,7.882 5.479,7.861 5.017,7.839 4.674,7.148 4.708,6.308 4.759,5.468 5.169,4.812 5.631,4.833 6.093,4.854 6.436,5.545 6.398,6.386 m 0,0"
           transform="scale(3.543307,3.543307)"
           stroke-miterlimit="4"
           id="path75-7" />
        <path
           style="fill:#2d2d2d;fill-opacity:1;fill-rule:nonzero;stroke:none"
           inkscape:connector-curvature="0"
           d="m 21.332,23.863 c -0.035,0.563 -0.348,1.078 -0.816,1.352 -0.469,0.273 -1.02,0.258 -1.438,-0.039 -0.418,-0.297 -0.641,-0.828 -0.574,-1.387 0.094,-0.832 0.781,-1.477 1.547,-1.457 0.766,0.02 1.332,0.699 1.281,1.531 m 0,0"
           id="path77-0" />
        <path
           style="fill:#ececec;fill-opacity:1;fill-rule:nonzero;stroke:#2d2d2d;stroke-width:0.28200001;stroke-linecap:butt;stroke-linejoin:miter;stroke-miterlimit:4;stroke-opacity:1"
           inkscape:connector-curvature="0"
           d="M 8.487,6.177 C 8.566,7.013 8.262,7.717 7.803,7.761 7.343,7.805 6.898,7.172 6.803,6.339 6.738,5.784 6.843,5.252 7.076,4.946 7.31,4.642 7.636,4.611 7.927,4.864 8.22,5.119 8.434,5.621 8.486,6.177 m 0,0"
           transform="scale(3.543307,3.543307)"
           stroke-miterlimit="4"
           id="path79-4" />
        <path
           style="fill:#2d2d2d;fill-opacity:1;fill-rule:nonzero;stroke:none"
           inkscape:connector-curvature="0"
           d="m 28.559,23.797 c -0.191,0.895 -0.922,1.57 -1.629,1.512 -0.707,-0.063 -1.125,-0.836 -0.934,-1.73 0.195,-0.895 0.922,-1.574 1.633,-1.512 0.707,0.059 1.121,0.836 0.93,1.73 m 0,0"
           id="path81-5" />
        <path
           style="fill:#2d2d2d;fill-opacity:1;fill-rule:nonzero;stroke:none"
           inkscape:connector-curvature="0"
           d="m 22.309,13.05 c -4.32,0.461 -7.453,3.961 -7.01,7.82 0.023,0.266 0.09,0.539 0.145,0.793 l 1.086,-0.129 c -0.063,-0.25 -0.121,-0.508 -0.145,-0.773 -0.379,-3.32 2.313,-6.336 6.04,-6.734 3.719,-0.395 7.05,1.973 7.43,5.293 0.031,0.266 0.027,0.531 0.02,0.797 l 1.086,-0.113 c 0.004,-0.262 0.012,-0.527 -0.016,-0.793 -0.445,-3.859 -4.316,-6.621 -8.637,-6.16 m 0.004,0"
           id="path83-0" />
        <path
           style="fill:#2d2d2d;fill-opacity:1;fill-rule:nonzero;stroke:none"
           inkscape:connector-curvature="0"
           d="m 30.906,22.23 c -0.113,1.078 -0.063,1.863 0.152,2.453 0.211,0.586 0.598,0.98 1.051,1.219 0.898,0.461 2,0.422 2.996,0.734 0.531,0.41 1.055,0.797 1.398,1.293 l 0.496,-0.336 C 36.565,26.976 35.972,26.554 35.433,26.136 L 35.394,26.101 35.335,26.085 C 34.198,25.71 33.081,25.718 32.394,25.366 32.054,25.186 31.8,24.944 31.632,24.479 31.464,24.014 31.405,23.331 31.519,22.303 m -0.613,-0.074"
           id="path85-1" />
      </g>
    </g>
  </g>
</svg>
